X: 7623
T: Coinleach Ghlas An Fhomhair
R: waltz
M: 3/4
K: Gmajor
(EG|A3/2A/G3/2A/cd|e4) z (e|e3/2d/4c/4d3/2e/AA|
G4) z (E/G/|A3/2A/G3/2A/c3/2d/|e4) z (e|
e3/2d/4c/4d3/2e/A3/2G/|A4) z (e|g3/2a/ge/d/c3/2e/|
g4) z (a/g/|ed/c/d3/2e/AA|G4) z (E/G/|
A3/2A/G3/2A/cd|e4) z (e|e3/2d/4c/4d3/2e/AG|A4) z2||

